www/assets/icons/attribution.svg

<svg xmlns="http://www.w3.org/2000/svg" width="24" height="24" viewBox="0 0 24 24" fill='currentColor'><path d="M12 8.5c-.91 0-2.75.46-2.75 1.38v4.62h1.5V19h2.5v-4.5h1.5V9.88c0-.91-1.84-1.38-2.75-1.38"/><path d="M12 2C6.47 2 2 6.47 2 12s4.47 10 10 10 10-4.48 10-10S17.52 2 12 2m0 18c-4.42 0-8-3.58-8-8s3.58-8 8-8 8 3.58 8 8-3.58 8-8 8"/><path d="M12 8a1.5 1.5 0 1 0 0-3 1.5 1.5 0 0 0 0 3"/></svg>

<svg width="24" height="24" viewBox="0 0 24 24" xmlns="http://www.w3.org/2000/svg" fill='currentColor'><path d="M12 8.5C11.09 8.5 9.25 8.96 9.25 9.88V14.5H10.75V19H13.25V14.5H14.75V9.88C14.75 8.97 12.91 8.5 12 8.5Z"/><path d="M12 2C6.47 2 2 6.47 2 12C2 17.53 6.47 22 12 22C17.53 22 22 17.52 22 12C22 6.48 17.52 2 12 2ZM12 20C7.58 20 4 16.42 4 12C4 7.58 7.58 4 12 4C16.42 4 20 7.58 20 12C20 16.42 16.42 20 12 20Z"/><path d="M12 8C12.8284 8 13.5 7.32843 13.5 6.5C13.5 5.67157 12.8284 5 12 5C11.1716 5 10.5 5.67157 10.5 6.5C10.5 7.32843 11.1716 8 12 8Z"/></svg>
